X: 15457
T: Glen Road To Carrick, The
R: reel
M: 4/4
K: Dmixolydian
|AD D2 AGFE|AD D2 BGBd|AD D2 AGFA|GEcE G2 Bd|
AD D2 AGFE|AD D2 BGBd|AD D2 AGFA|GEcE GcGE||
D2 dA FdAF|Dd^cd ABAF|D2 dA F2AF|GEcE GcGE|
D2 dA FAFE|Dd^cd A2 B^c|(3d^cB (3cBA BGAF|GEcE G2 eg||
fd^cd Ad^cd|fdfg abag|fd^cd Ad^cd|e^def gbag|
fddg fddg|fdfg abag|fd^cd Ad^cd|e^def g2 ge||
fde^c dBAG|(3FGA DF A2 Bc|(3d^cB (3cBA BGAF|GEcE G2 eg|
fde^c dBAG|(3FGA DF A2 Bc|(3d^cB (3cBA BGAF|GEcE GAB^c||
dD D2 AD D2|dD D2 A2 Bc|dD D2 AGFA|GEcE GAB^c|
dD D2 AD D2|dD D2 A2 Bc|dBcA BGAF|GEcE G2 Bd||

